src/NuGetGallery/Content/gallery/img/api-key-new.svg

<svg xmlns="http://www.w3.org/2000/svg" viewBox="0 0 16 16"><title>nuget-key-new</title><defs><style>@media screen and (-ms-high-contrast:active){.high-contrast-visible{fill: windowText;}}</style></defs><path d="M16,5.5a5.446,5.446,0,0,1-.75,2.773c-.075.128-.164.247-.249.368l-.383-.383L14,8.875V8.291a4.62,4.62,0,0,0,.644-1.041A4.347,4.347,0,0,0,15,5.5a4.349,4.349,0,0,0-.356-1.75A4.525,4.525,0,0,0,12.25,1.355a4.485,4.485,0,0,0-3.5,0A4.525,4.525,0,0,0,6.355,3.75,4.35,4.35,0,0,0,6,5.5a3.878,3.878,0,0,0,.109.926,7.333,7.333,0,0,0,.281.895L1,12.711V15H3V13H5V11H7V9h.7a4.269,4.269,0,0,0,1.238.707l-.676.676.213.213c-.159-.065-.317-.132-.471-.213V12H6v2H4v2H0V12.289L5.242,7.055a5.494,5.494,0,0,1-.18-.766A4.947,4.947,0,0,1,5,5.5a5.446,5.446,0,0,1,.75-2.773A5.613,5.613,0,0,1,7.727.75a5.485,5.485,0,0,1,5.547,0A5.613,5.613,0,0,1,15.25,2.727,5.446,5.446,0,0,1,16,5.5ZM12.707,3.293a1.017,1.017,0,0,0-.316-.215,1.016,1.016,0,0,0-.781,0,1.019,1.019,0,0,0-.531.531,1.016,1.016,0,0,0,0,.781,1.019,1.019,0,0,0,.531.531,1.016,1.016,0,0,0,.781,0,1.019,1.019,0,0,0,.531-.531,1.016,1.016,0,0,0,0-.781A1.018,1.018,0,0,0,12.707,3.293Z" fill="#000" class="high-contrast-visible" /><path d="M10.383,9.672,11.8,11.086l-.711.711L9.672,10.383Zm-.711,4.945.711.711L11.8,13.914l-.711-.711ZM11,12H9v1h2Zm4.328-1.617-.711-.711L13.2,11.086l.711.711ZM12,11h1V9H12Zm0,5h1V14H12Zm2-4v1h2V12Zm-.8,1.914,1.414,1.414.711-.711L13.914,13.2Z" fill="#0075cc"/></svg>

<svg xmlns="http://www.w3.org/2000/svg" viewBox="0 0 16 16"><defs><style>@media screen and (-ms-high-contrast:active){.high-contrast-visible{fill: windowText;}}</style></defs><path d="M16 5.5a5.45 5.45 0 0 1-.75 2.77c-.07.13-.16.25-.25.37l-.38-.38-.62.62v-.6a4.62 4.62 0 0 0 .64-1.03A4.35 4.35 0 0 0 15 5.5a4.35 4.35 0 0 0-.36-1.75 4.53 4.53 0 0 0-2.4-2.4 4.5 4.5 0 0 0-3.5 0 4.53 4.53 0 0 0-2.38 2.4A4.35 4.35 0 0 0 6 5.5a3.88 3.88 0 0 0 .1.93 7.33 7.33 0 0 0 .3.9L1 12.7V15h2v-2h2v-2h2V9h.7a4.27 4.27 0 0 0 1.24.7l-.68.68.22.22c-.16-.07-.32-.14-.48-.22V12H6v2H4v2H0v-3.7l5.24-5.25a5.5 5.5 0 0 1-.18-.76A4.95 4.95 0 0 1 5 5.5a5.45 5.45 0 0 1 .75-2.77A5.6 5.6 0 0 1 7.73.75a5.5 5.5 0 0 1 5.54 0 5.6 5.6 0 0 1 1.98 1.98A5.45 5.45 0 0 1 16 5.5zm-3.3-2.2a1.02 1.02 0 0 0-.3-.22 1.02 1.02 0 0 0-.8 0 1.02 1.02 0 0 0-.52.53 1.02 1.02 0 0 0 0 .8 1.02 1.02 0 0 0 .53.52 1.02 1.02 0 0 0 .8 0 1.02 1.02 0 0 0 .52-.53 1.02 1.02 0 0 0 0-.8 1.02 1.02 0 0 0-.2-.3z" class="high-contrast-visible"/><path fill="#0075cc" d="M10.38 9.67l1.42 1.42-.7.7-1.43-1.42zm-.7 4.95l.7.7 1.42-1.4-.7-.72zM11 12H9v1h2zm4.33-1.62l-.7-.7-1.43 1.4.7.72zM12 11h1V9h-1zm0 5h1v-2h-1zm2-4v1h2v-1zm-.8 1.9l1.4 1.43.72-.7-1.4-1.43z"/></svg>
